X: 504
T: Cam-ı Lalin
C: Zaharya
O: Turkey
F: http://compmusic.upf.edu/node/140
N: ussak--beste--agircenber--cam-i_lalin--zaharya
N: makam= ussak
N: form= beste
N: usul= agircenber = 24/2
M: 24/2
L: 1/16
K: C _2/4B   
Q: 1/4=180
%%MIDI tuningsystem comma53
c4 d4 d4 e2 f2  | e2 d2 c2 _1/4B2 z2 e2 d2 e2  | \
w:   |   | 
d6 _1/4B2 c2 B2 c2 d2  | d2 c2 _1/4B2 A2 A4 z4  | 
w:   |   | 
d4 c2 _1/4B2 A4 d4  | c3e d2 c2 _1/4B3A G4  | \
w:   |   | 
A2 c2 _1/4B2 A2 G2 ^F2 G4  | G2 z2 A2 _1/4B2 c2 B2 c2 d2  | 
w:   |   | 
d2 c4 _1/4B2 B2 A4 G2  | A3G F2 G2 A2 _1/4B2 c2 d2  | \
w:   |   | 
e2 d2 z2 _1/4B2 c2 B3A G2  | 
w:   | 
A2 A6 _1/4B2 c4 d4 d2 e4 dc c3B e2  | \
w:   | 
dc c8 z2 e2 d2  | e2 d3c _1/4B2 c2 B2 c2 d3/2e/  | 
w:   |   | 
dc _1/4B2 c6 z4 z4 g4 f3e d4 a3g g2 f2 e2 d2 e2 d2 c2  | \
w:   | 
_1/4B2 d2 f2 e2 d2 c2 B2 A2  | 
w:   | 
G2 G2 z2 A2 _1/4B2 c2 B2 c2  | d2 e2 d2 c4 _1/4B2 A2 B2  | \
w:   |   | 
cd c_1/4B B2 A2 B2 c2 B2 c2  | 
w:   | 
_1/4B2 A2 A3G A2 B2 d6 e2 d6 f2 e3d  | \
w:   | 
c4 g3f f3e e2 d4 _7/8e2 g^f ed c2 _1/4B2 z2 =e2  | 
w:   | 
d2 e2 d2 c4 _1/4B2 B4  | A4 A2 c4 _1/4BA A4  | \
w:   |   | 
z4 g4 f3e d4  | a3g g2 f2 e2 d2 e3d  | 
w:   |   | 
c2 _1/4B2 d3f e2 d2 c2 B2  | A2 G2 G2 z2 A2 _1/4B2 c2 B2  | \
w:   |   | 
c2 d2 d2 c2 _1/4B2 A2 A2 B2  | 
w:   | 
A2 G2 A3G ^F2 G2 A2 _1/4B2  | c2 d2 d2 z2 _1/4B2 c2 B3A  | \
w:   |   | 
G2 A2 A4 A4 A4  | 
w:   | 
z4 _1/4B4 c4 B2 c2  | _1/4d2 e2 dc c8 z2  | \
w:   |   | 
c6 _1/4d2 c3_1/4B A4  | A2 c2 _1/4B2 A2 G4 A4  | 
w:   |   | 
A4 z4 _1/4B4 d2 c2  | _1/4B2 A4 e4 d2 f2 e2  | \
w:   |   | 
d2 dc c_1/4B c4 Bc d4  | c_1/4B A2 B2 G4 G2 z2 G2  | 
w:   |   | 
A2 G2 A2 G2 c2 _1/4B4 c4 c8 z4 c2  | \
w:   | 
d2 c3_1/4B A4 A2 z2 A2  | _1/4B2 A4 G2 ^F2 G3F G2  | 
w:   |   | 
^F2 G2 F2 G2 A_1/4B A2 G2 F2  | E2 E6 A2 ^G4 A4 z2 e2 d2 e2 d3c _1/4B2  | 
w:   |   | 
c2 _1/4B2 c2 d2 e2 dc B4  | c4 c8 z4  | \
w:   |   | 
d4 d4 e4 e8 e6 d2 cd e4 dc c8 z4  | 
w:   | 
d4 d4 e4 d4  | e4 e6 d2 cd e4 dc c8 z4  | \
w:   |   | 
c2 c2 c6 d2 c_1/4B c6 d2 cB c3B e3d  | 
w:   | 
d3c c3_1/4B B3A A2 _7/8B2  | A2 _7/8B2 A2 G2 z2 A4 B2  | \
w:   |   | 
A2 _7/8B2 A2 B2 A2 e2 d2 ^c2  | 
w:   | 
^c2 _7/8B2 c2 B2 A2 A8 z2 d4 c2 B4 e4 z2 d3/2e/ d2 c2 B4 A4 A_1/4B =c4 BA AG G^F G4 G2 z2 G2 A2 G2 A2 G2  | 
w:   | 
A2 z2 G4 A2 _1/4B2 c2 B2  | c2 c2 z2 _1/4B2 c2 B3A G2  | \
w:   |   | 
d2 e2 d4 _1/4B2 c2 B2 A2  | 
w:   | 
G2 A2 _1/4B2 A8 A4 z4 |
w:   | 


